!!!OTL-incipit: ES STEHT EIN BAUM IM GRUENEN THAL
!!!ARE: Europa, Mitteleuropa, Deutschland, Franken
!!!SCT: Z0078
!!!TXL: @@DE
!!!YEM: Copyright 1995, estate of Helmut Schaffrath.
**kern	**text
*ICvox	*
*M4/4	*
*met(c)	*
*k[f#c#]	*
*D:	*
!LO:TX:a:t=Franken.	!
{8a	Es
=1	=1
4.a	ſteht
8a	ein
4f#	Baum
4d	im
=2	=2
4e	grü-
4e	-nen
4e	Thal,
8r}	.
{8a	von
=3	=3
4.a	wei-
8a	-chem
4f#	Gras
4d	um-
=4	=4
2.e	-moof't,
8r}	.
{8ee/	da
=5	=5
4.ee/	ha-
8ee/	-ben
4cc#/	wir
4a	viel
=6	=6
4dd/	tau-
4dd/	-ſend
4dd/	mal
8r}	.
{8dd/	ge-
=7	=7
4.ee/	-ſeſ-
8ee/	-ſen
4cc#/	und
4a	ge-
=8	=8
2.dd/	-koſ't.
8r}	.
==	==
!!!AGN: Sagen - Lied, Romanze, Tod
!!!ONB: ESAC (Essen Associative Code) Database: ZUCCAL
!!!AMT: simple quadruple
!!!AIN: vox
!!!EED: Helmut Schaffrath
!!!EEV: 1.0
!!!GTL: I. Ernste Romanzen und Sagen.
!!!URL-scan: https://www.digitale-sammlungen.de/de/view/bsb11160571?page=159
!!!ENC: Anna Maria Matuszewska
!!!EEV: 2025/01/27
*-	*-
